X:1
T:Title
%%score 1 2 3 4
L:1/8
M:3/2
K:C
V:1 treble nm="Part_1"
V:2 treble nm="Part_2"
V:3 treble-8 nm="Part_3"
V:4 treble-8 nm="Part_4"
V:1
 c6 B2 A4 | G4 c8 | _B6 A2 A2 G2 | E4 F2 G2 A2 GF | A12 | z4 z4 c4 | B2 d4 c2 BA G2- | %7
 G2 c4 B2 B2 A2 | c6 A2 B2 c2 | A4 F4 z4 | A4 G8 | F6 E2 C2 D2 | E2 F2 G4 C4 | z12 | E2 F2 G6 E2 | %15
 G2 AB c2 B4 A2 | c6 A2 c4 | B4 A2 G4 F2 | E4 z2 c2 d4 | e3 dcB A2 B3 A | c4 z4 z4 | G4 A2 B2 c4 | %22
 B12 | c2 A4 G2 A2 F2 | E2 C4 E2 D4 | C4 z2 F4 ED | E8 A4 | A4 G4 A2 B2 | c2 B2 A2 G2 G4 | z4 A8 | %30
 B12 | c8 B4 | A6 GF E4 | F4 G6 F2 | A8 z4 | G4 A2 B4 AB | c2 A4 G2 A2 B2 | c4 A2 GF G4 | %38
 z4 A4 G2 E2 | D2 G4 E2 F3 E | G8 A4 | z4 B2 G2 A2 c2 | B8 B2 c2 | A4 F6 G2 | A8 G3 F | %45
 D2 E2 C2 F2 E3 D | F12 |] %47
V:2
 G8 F4 | G4 A6 G2 | F8 E4- | E4 D8 | C4 z4 F4 | E2 A6 G2 FE | G2 A2 B4 c4 | A2 G2 A2 B2 A2 GF | %8
 E4 z4 F2 G2 | A2 B2 c4 d4 | d6 c2 c2 B2 | d8 z4 | c6 B2 A2 G2 | c6 B2 B2 A2 | c8 z4 | %15
 G4 A2 G4 E2 | A6 G2 E2 F2 | G4 z4 z4 | E4 C2 E2 D4 | C2 F2 E2 D2 E2 F2 | G4 A6 G2 | G6 F2 F2 E2 | %22
 G8 z4 | c2 d2 e2 c4 B2 | c3 A A4 G2 D2 | E4 D4 z4 | A6 B2 c4 | A2 F2 G4 z2 G2 | A3 B c2 d2 B3 A | %29
 c12 | z12 | A4 G2 F2 E4 | F8 G4 | F2 E2 C8 | F6 G2 A4 | G4 F2 D2 F2 G2 | E4 A2 B2 c4 | %37
 A2 G2 F2 G2 E3 D | F4 A2 c2 B2 A2 | G4 A4 z4 | B4 c4 G2 F2 | G4 A2 G3 FFE | G8 z4 | c6 A2 c2 d2 | %44
 e4 f2 e2 d4 | B2 c2 A2 GF G4 | A12 |] %47
V:3
 c12 | c8 A4 | d8 c4 | A4 _B6 A2 | F12 | c8 A4 | G8 c4 | e4 d8 | c8 d2 e2 | f8 d4 | f4 e8 | %11
 d6 c2 A4 | c8 e4- | e4 d8 | c12 | z12 | F8 A4 | G4 c8- | c8 B4 | c2 d2 e2 f2 d4 | c8 B4- | B4 A8 | %22
 G12 | A2 G2 c2 e2 d4 | c8 B4 | c4 d6 c2 | A12 | c2 d2 e2 d2 f4 | f4 e2 c2 d4 | c12 | G12 | z12 | %32
 F8 c4 | d4 e8 | d6 c2 f4 | e2 f2 d8 | c4 B4 A4 | F2 G2 A2 B2 c4 | F8 G4 | B4 A8 | G4 c6 d2 | %41
 B2 G4 B2 A4 | G8 F4 | F4 F2 G2 A2 B2 | c8 B4- | B2 A2 c8 | F12 |] %47
V:4
 C8 F4 | E2 C2 C4 z2 F2 | D8 A2 B2 | c4 d6 e2 | f6 e2 c4 | A6 B2 c4 | d8 e4 | c4 G4 z4 | C8 z2 C2 | %9
 D4 A4 D4- | D4 z4 z4 | D8 F4 | C12 | C4 G8 | C8 z4 | c6 d2 e4 | f6 e2 c4 | d4 e4 c4 | z4 C4 G4 | %19
 z2 G4 D2 G4 | C4 F4 z4 | G4 D4 c4 | d8 d2 c2 | A8 z4 | A2 E2 F4 G4 | A4 F4 z2 A2 | c6 d2 e4- | %27
 e2 f2 c4 F4- | F4 C4 G4 | C8 c4 | d8 B4 | A8 G4 | D8 C4 | z4 c4 A4 | D12 | z12 | A4 c2 d2 e4 | %37
 f2 e2 c2 d2 e4 | c4 f4 e2 d2 | d6 c2 c2 B2 | d4 e8 | d4 B2 B2 c4 | d8 f4 | c8 z4 | A4 F4 G4 | %45
 G4 F4 C4 | c12 |] %47

